X:2
T:Il est n le divin enfant! - F56
C:Traditionnel
M:2/4
L:1/4
K:F
"F"CF|FA/F/|CF|F2|FF/G/|AB/A/|"Gm"GF|"C"GC|"F"CF|FA/F/|CF|F2|"F"F"C"G|"F"A"Bb"B/A/|"C"Gc|"F"F2||
"F"AB|cB/A/|"Bb"Bd|"F"c2|AB|cd/c/|"Gm"BA|"C"AG|"F"AB|cB/A/|"Bb"Bd|"F"c2|AB|c"Dm"d/c/|"Gm"BA|"C"G2||
